tools/download-figma-icons/icons/solid/thumbs-up.svg

<svg width="25" height="24" viewBox="0 0 25 24" fill="none" xmlns="http://www.w3.org/2000/svg">
<path fill-rule="evenodd" clip-rule="evenodd" d="M21.8548 20.4L23.9773 12.375C24.1573 11.4525 23.4523 10.5 22.5073 10.5H15.7498V4.125C15.7498 3.09 14.9098 2.25 13.8748 2.25C13.3573 2.25 12.8848 2.46 12.548 2.7975C12.2105 3.135 11.9998 3.6075 11.9998 4.125C11.9998 6.375 11.8123 7.965 11.1598 9C10.4998 10.035 9.37476 10.5 7.49976 10.5C7.08727 10.5 6.74976 10.8375 6.74976 11.25V20.25C6.74976 20.6625 7.08727 21 7.49976 21H21.1198C21.4798 21 21.7873 20.745 21.8548 20.4ZM0.75 21.75H4.5C4.91475 21.75 5.25 21.4147 5.25 21V10.5C5.25 10.0852 4.91475 9.75 4.5 9.75H0.75C0.33525 9.75 0 10.0852 0 10.5V21C0 21.4147 0.33525 21.75 0.75 21.75Z" fill="black"/>
</svg>

<svg xmlns="http://www.w3.org/2000/svg" width="25" height="24" fill="none" viewBox="0 0 25 24"><path fill="currentColor" fill-rule="evenodd" d="m21.855 20.4 2.122-8.025c.18-.922-.525-1.875-1.47-1.875H15.75V4.125a1.876 1.876 0 0 0-3.75 0c0 2.25-.188 3.84-.84 4.875-.66 1.035-1.785 1.5-3.66 1.5a.75.75 0 0 0-.75.75v9c0 .413.337.75.75.75h13.62c.36 0 .667-.255.735-.6M.75 21.75H4.5a.75.75 0 0 0 .75-.75V10.5a.75.75 0 0 0-.75-.75H.75a.75.75 0 0 0-.75.75V21c0 .415.335.75.75.75" clip-rule="evenodd"/></svg>
